src/Pure/16/symbolic/actions/font-color-symbolic.svg

<svg width="16" height="16" version="1.1" xmlns="http://www.w3.org/2000/svg">
 <path d="m2 2v1h6c1.108 0 2 0.892 2 2v1h-6c-1.662 0-3 1.338-3 3s1.338 3 3 3h2.1055a5 5 0 0 1-0.10547-1h-2c-1.108 0-2-0.892-2-2s0.892-2 2-2h4.0098a5 5 0 0 1 2.9902-1v-1c0-1.662-1.338-3-3-3h-6z" fill="#363636"/>
 <circle cx="11" cy="11" r="4" fill="#ed333b"/>
</svg>

<?xml version="1.0" encoding="UTF-8" standalone="no"?>
<svg
   width="16"
   height="16"
   version="1.1"
   id="svg1"
   sodipodi:docname="font-color-symbolic.svg"
   inkscape:version="1.4.2 (ebf0e940d0, 2025-05-08)"
   xmlns:inkscape="http://www.inkscape.org/namespaces/inkscape"
   xmlns:sodipodi="http://sodipodi.sourceforge.net/DTD/sodipodi-0.dtd"
   xmlns="http://www.w3.org/2000/svg"
   xmlns:svg="http://www.w3.org/2000/svg">
  <defs
     id="defs1">
     <style
        id="current-color-scheme"
        type="text/css">
        .ColorScheme-Text { color:#363636; }
        .ColorScheme-NegativeText { color:#da4453; }
     </style>
  </defs>
  <sodipodi:namedview
     id="namedview1"
     pagecolor="#ffffff"
     bordercolor="#000000"
     borderopacity="0.25"
     inkscape:showpageshadow="2"
     inkscape:pageopacity="0.0"
     inkscape:pagecheckerboard="0"
     inkscape:deskcolor="#d1d1d1"
     inkscape:zoom="49.6875"
     inkscape:cx="8"
     inkscape:cy="8"
     inkscape:window-width="1920"
     inkscape:window-height="1010"
     inkscape:window-x="0"
     inkscape:window-y="0"
     inkscape:window-maximized="1"
     inkscape:current-layer="svg1" />
  <path
     id="path1"
     style="fill:currentColor"
     class="ColorScheme-Text"
     d="M 2 2 L 2 3 L 8 3 C 9.108 3 10 3.892 10 5 L 10 6 L 4 6 C 2.338 6 1 7.338 1 9 C 1 10.662 2.338 12 4 12 L 6.1054688 12 A 5 5 0 0 1 6 11 L 4 11 C 2.892 11 2 10.108 2 9 C 2 7.892 2.892 7 4 7 L 8.0097656 7 A 5 5 0 0 1 11 6 L 11 5 C 11 3.338 9.662 2 8 2 L 2 2 z " />
  <circle
     cx="11"
     cy="11"
     r="4"
     style="fill:currentColor"
     class="ColorScheme-NegativeText"
     id="circle1" />
</svg>
